icon/pk/boxing-one.svg

<svg width="48" height="48" fill="none" xmlns="http://www.w3.org/2000/svg"><path d="M13 26h2c2.76 0 5-2.24 5-5s-2.24-5-5-5h-4c-2.76 0-5 2.24-5 5v9a6 6 0 0 0 6 6h24a6 6 0 0 0 6-6v-4a4 4 0 0 0-4-4H24M34 44H14a2 2 0 0 1-2-2v-6h24v6c0 1.1-.9 2-2 2Z" stroke="#000" stroke-width="4" stroke-miterlimit="2" stroke-linecap="round" stroke-linejoin="round"/><path d="M6 20c-1 0-2-2-2-4v-4c0-4.42 3.58-8 8-8h24c4.42 0 8 3.58 8 8v4c0 3.31-2.69 6-6 6H19.9" stroke="#000" stroke-width="4" stroke-miterlimit="2" stroke-linecap="round" stroke-linejoin="round"/></svg>

<svg viewBox="0 0 48 48" fill="none" xmlns="http://www.w3.org/2000/svg" height="1em" width="1em">
  <path d="M13 26H15C17.76 26 20 23.76 20 21C20 18.24 17.76 16 15 16H11C8.24 16 6 18.24 6 21V30C6 33.3137 8.68629 36 12 36H36C39.3137 36 42 33.3137 42 30V26C42 23.7909 40.2091 22 38 22H24" stroke="black" stroke-width="4" stroke-miterlimit="2" stroke-linecap="round" stroke-linejoin="round"/>
  <path d="M34 44H14C12.89 44 12 43.1 12 42V36H36V42C36 43.1 35.1 44 34 44Z" stroke="black" stroke-width="4" stroke-miterlimit="2" stroke-linecap="round" stroke-linejoin="round"/>
  <path d="M6 20C5 20 4 18 4 16V12C4 7.58 7.58 4 12 4H36C40.42 4 44 7.58 44 12V16C44 19.31 41.31 22 38 22H19.9" stroke="black" stroke-width="4" stroke-miterlimit="2" stroke-linecap="round" stroke-linejoin="round"/>
</svg>
